X:4587419
%%MIDI ratio 2 1
%%pagescale .80
T:Valse Louise
T:Valse Aldor or Valse Armandine
C:Aldor Morin or Fortunat Malouin (maybe)
S:Philippe Bruneau, $2Au Symposium de LÃ©vis$0 (1989). Archives du MusÃ©e canadien des
S:civilisations, Archives TDCA-2003PB, 2003.
S:Jean Duval, $2La Musique de Fortunat Malouin (1870-1935); 10 piÃ¨ces avec commentaires
S:et une biographie.$0, 2020.
H:In $2The Waltz Book II$0, Bill Matthiesen says, quoting Lisa Ornstein, that Philippe Bruneau
H:and Aldor Morin both sometimes played for the Soucy Family's $2Chez Isidore$0 television
H:show. "Philippe Bruneau popularized this waltz under the name $2Valse Aldor$0. although
H:its original and correct title is $2Valse Louise$0." On this recording he calls it 
H:$2Valse Armandine$0. Jean Duval wrote that Fortunat Malouin might have composed the waltz,
H:naming it for his daughter Armandine who accompanied him on his records. He recorded it 
H:in 1929, at which time Aldor Morin was 8 years old. But Aldor Morin had already been 
H:playing for a couple years, having studied with Madame Bolduc, so he can't be ruled
H:out as the composer.
H:
H:This is as accurate a transcription of Philippe Bruneau's version of the tune as I'm
H:capable of doing. If you're familiar with his playing you're likely to be aware that
H:his ornamentation is complex, and he plays many variations, On this recording there
H:are a number of other instruments that create a rich sound that's great to listen to
H:but hard to transcribe.
H:
H:I include some of his idiosyncratic phrasing and timing. He doesn't play each detail
H:all the time; and he has other variations not represented here. In the descending run
H:of triplets he sometimes only plays some notes as triplets. If you want to avoid the high
H:D at the end of the A part, the last 4 measures could be played an octave lower.
N:From NH Country Dance (URL below), along with many New England, Canadian & Swedish
N:tunes, and resources for abc notation and New England traditional music and dance.
%
N: Note #1: To preserve formatting (font, spacing, etc.), use the
N: file header at the URL below; just follow accompanying instructions.
%
N: Note #2: This abc code is optimized for use with abcm2ps, which is used by
N: EasyABC and other abc apps. To abc2svg for display or printing look to see if there
N: is a file optimized for abc2svg. If not you may need to adjust the spacing in places.
%
Z:abc-transcription Peter Yarensky. I rely heavily on careful listening to the
Z:named sources aided by software to hear details. While not perfect, known
Z:substantial differences from other written sources receive careful attention.
Z:abc-copyright Peter Yarensky. You may reproduce this tune freely but
Z:please include the entire abc file including all the notes.
%%writefields HQSD
F:Tunes Home Page - https://fiddle-tunes.nhcountrydance.com/
F:abc Header & its Usage - https://fiddle-tunes.nhcountrydance.com/header-page/
M:3/4
L:1/8
R:Waltz
G:Couples Dances ~ Waltzes ~ Canadian
N: Tune Tags ~ Waltz, Canadian, Aldor Morin
K:D
%%textfont Palatino-Italic 14
%%text As Played by Philippe Bruneau.
%%text Dotted pairs get a 2:1 ratio (e.g. 1/4 & 1/8 notes)
%%textfont Palatino-Roman 16
%%
d2 [|\
"D" f4-fg     | "D" f4 g2   | "D" (3fff f2 d2   | "D" A2> B2 c>d |\
"Em" e4 f2    | "Em" e4 f2  | "Em" (3 eee e2 d2 | "A7" A2 Bc de  |
"D" f4 g2     | "D" f4 g2   | "D" (3fff f2 d2   | "D" A4 z2      |\
"A7" AA Bc de | "D" f4 .e2  | "A7" AA ^GA cB    | "A7" A2 G2 E2  ||
"D" f4 g2     | "D" f4 g2   | "D" f2 f2 d/e/d   | "D" A2> B2 c>d |\
"Em" e4 f2    | "A7" e4 f2  | "E7" e2 e2 d2     | "A7" A2- Az z2 |
"D" A2 F2 A2  | "D7" d4 =c2 | "G" B2 .G2 B<e-   | "E7" e4 d2     |\
"A7" cd ef ga | "A7" b4 c2  | "D" df A>d f>a    | "D" .d'z z     ||
[K:G] |: d "D7" d>e |\
"G" d>B G>D G>B     | "G" d>B G>D G>B  | "Am" d2 c2- cB | "Am" c2-c>c c>d |
"D7" c>A F>D F>A    | "D7" c>A F>D F>A | "G" c2.Bz zA   | "G" B4 B>d |
"G" g>d B>G B>d     | "G7" g>d B>G B>d | "C" f2 e2 ^d2  | "Am" e2- ed d>e |
"D7" f2 (3efe (3ded | "D7" (3cdc (3BcB (3ABA    | "G" G2 DG Bd   |1 "G" .gz z :|2 "G" .gz z4 |]
%%vskip 20

